svgs/sharp-regular/message-minus.svg

<svg xmlns="http://www.w3.org/2000/svg" viewBox="0 0 512 512"><!--! Font Awesome Pro 6.4.2 by @fontawesome - https://fontawesome.com License - https://fontawesome.com/license (Commercial License) Copyright 2023 Fonticons, Inc. --><path d="M160 464v48l48-32 96-64H464h48V368 48 0H464 48 0V48 368v48H48h64 48v38.3V464zm117.4-87.9L208 422.3V416 368H160 48V48H464V368H304 289.5l-12.1 8.1zM184 184H160v48h24H328h24V184H328 184z"/></svg>

<svg xmlns="http://www.w3.org/2000/svg" viewBox="0 0 512 512"><!--! Font Awesome Pro 6.6.0 by @fontawesome - https://fontawesome.com License - https://fontawesome.com/license (Commercial License) Copyright 2024 Fonticons, Inc. --><path d="M160 464l0 48 48-32 96-64 160 0 48 0 0-48 0-320 0-48L464 0 48 0 0 0 0 48 0 368l0 48 48 0 64 0 48 0 0 38.3 0 9.7zm117.4-87.9L208 422.3l0-6.3 0-48-48 0L48 368 48 48l416 0 0 320-160 0-14.5 0-12.1 8.1zM184 184l-24 0 0 48 24 0 144 0 24 0 0-48-24 0-144 0z"/></svg>
